projects/plugins/jetpack/images/plans/jetpack-golden-token.svg

<svg fill="none" height="81" viewBox="0 0 81 81" width="81" xmlns="http://www.w3.org/2000/svg" xmlns:xlink="http://www.w3.org/1999/xlink"><filter id="a" color-interpolation-filters="sRGB" filterUnits="userSpaceOnUse" height="60" width="60" x="10" y="10"><feFlood flood-opacity="0" result="BackgroundImageFix"/><feColorMatrix in="SourceAlpha" result="hardAlpha" type="matrix" values="0 0 0 0 0 0 0 0 0 0 0 0 0 0 0 0 0 0 127 0"/><feOffset/><feGaussianBlur stdDeviation="2.5"/><feComposite in2="hardAlpha" operator="out"/><feColorMatrix type="matrix" values="0 0 0 0 0 0 0 0 0 0 0 0 0 0 0 0 0 0 0.5 0"/><feBlend in2="BackgroundImageFix" mode="normal" result="effect1_dropShadow_8419_121536"/><feBlend in="SourceGraphic" in2="effect1_dropShadow_8419_121536" mode="normal" result="shape"/></filter><linearGradient id="b" gradientUnits="userSpaceOnUse" x1="40" x2="102.026" y1="-41.9444" y2="-22.6448"><stop offset="0" stop-color="#a38718"/><stop offset=".366948" stop-color="#deb100"/><stop offset="1" stop-color="#a38718"/></linearGradient><rect fill="#2c3338" height="80.1429" rx="9.42857" width="80.1429" x=".42857" y=".428711"/><g filter="url(#a)"><path d="m40 65c13.8071 0 25-11.1929 25-25s-11.1929-25-25-25-25 11.1929-25 25 11.1929 25 25 25z" fill="url(#b)"/><path clip-rule="evenodd" d="m38.7126 19.9629v24.1889h-12.4523zm2.5298 40.0759v-24.2367h12.5z" fill="#fff" fill-rule="evenodd"/></g></svg>

<svg width="81" height="81" viewBox="0 0 81 81" fill="none" xmlns="http://www.w3.org/2000/svg">
<rect x="0.42857" y="0.428711" width="80.1429" height="80.1429" rx="9.42857" fill="#2C3338"/>
<g filter="url(#filter0_d_8419_121536)">
<path d="M40 65C53.8071 65 65 53.8071 65 40C65 26.1929 53.8071 15 40 15C26.1929 15 15 26.1929 15 40C15 53.8071 26.1929 65 40 65Z" fill="url(#paint0_linear_8419_121536)"/>
<path fill-rule="evenodd" clip-rule="evenodd" d="M38.7126 19.9629V44.1518H26.2603L38.7126 19.9629ZM41.2424 60.0388V35.8021H53.7424L41.2424 60.0388Z" fill="white"/>
</g>
<defs>
<filter id="filter0_d_8419_121536" x="10" y="10" width="60" height="60" filterUnits="userSpaceOnUse" color-interpolation-filters="sRGB">
<feFlood flood-opacity="0" result="BackgroundImageFix"/>
<feColorMatrix in="SourceAlpha" type="matrix" values="0 0 0 0 0 0 0 0 0 0 0 0 0 0 0 0 0 0 127 0" result="hardAlpha"/>
<feOffset/>
<feGaussianBlur stdDeviation="2.5"/>
<feComposite in2="hardAlpha" operator="out"/>
<feColorMatrix type="matrix" values="0 0 0 0 0 0 0 0 0 0 0 0 0 0 0 0 0 0 0.5 0"/>
<feBlend mode="normal" in2="BackgroundImageFix" result="effect1_dropShadow_8419_121536"/>
<feBlend mode="normal" in="SourceGraphic" in2="effect1_dropShadow_8419_121536" result="shape"/>
</filter>
<linearGradient id="paint0_linear_8419_121536" x1="40" y1="-41.9444" x2="102.026" y2="-22.6448" gradientUnits="userSpaceOnUse">
<stop stop-color="#A38718"/>
<stop offset="0.366948" stop-color="#DEB100"/>
<stop offset="1" stop-color="#A38718"/>
</linearGradient>
</defs>
</svg>
